X:208
T:Paddy Fahy's Jig
T:Paddy Fahey's Jig
R:jig
C:Paddy Fahey (1916-2019)
S:Recording of Paddy Fahey himself from 1972.
S:http://www.clarelibrary.ie/eolas/coclare/music/live/aughrim_JH24-2.htm
H:See also #309.
D:Planxty:
Z:id:hn-jig-208
M:6/8
K:G
DGA B2G | cBc d2g | gfd Bcd | cAG AGF |
DGA ~B3 | cBc d2g | gfd Bcd |1 cAF G2F :|2 cAF GBd ||
|: g2d fga | gfd Bcd | cAA ~f3 | agf def |
g2a bag | fdg fdc | B2G AGF |1 DGF GBd :|2 DGF G2F ||
P:from Fahey's own playing
|: DGA B2G | cBc d2g | gfd Bcd | cBG =FDC |
DGA B2G | cBc dfa | g2d Bgd |1 cAF G2F :|2 cAF GBd ||
|: g2d fga | gfd Bcd | c2A =fef | ag^f def |
g2a bag | fdg fdc | ABG AGF |1 DGF GBd :|2 DGF G2F ||

